X: 1142
T: Rowan Tree (A63)
N: page A63
N: heptatonic
R: Slow air
M: 4/4
L: 1/8
K: A
A3B|"A"c3 c c2 B2|c e3 e2 a2|"D"f3 e f2 a2|
f2 e2 "A"e2 AB|c3 c c2 B2|c e3 f2 e2|"E"e2 c2 B2 c2|"A"A6::
e2|"A"e2-e3/2a/ a2-ag|"D"g2 f2 f2 a2|"A"e3 f fedc|
"E"c2-cd/c/ B2 A2|"A"Bc3 cB3|"A"ce3 "D" f3e|"A"e c3 B3 c|A6:|
